dist/img/menu/menu__icon5.svg

<svg width="22" height="22" viewBox="0 0 22 22" fill="none" xmlns="http://www.w3.org/2000/svg">
<circle cx="11" cy="11" r="10.15" stroke="#BFC0C4" stroke-width="1.7"/>
<path d="M8.15621 16.7619C8.05483 16.7619 7.96865 16.729 7.89769 16.6631C7.83686 16.5863 7.80644 16.493 7.80644 16.3833V14.2761H6.63548C6.53409 14.2761 6.44792 14.2431 6.37695 14.1773C6.31612 14.1005 6.28571 14.0072 6.28571 13.8974V13.5188C6.28571 13.409 6.31612 13.3212 6.37695 13.2554C6.44792 13.1786 6.53409 13.1401 6.63548 13.1401H7.80644V12.2018H6.63548C6.53409 12.2018 6.44792 12.1688 6.37695 12.103C6.31612 12.0262 6.28571 11.9329 6.28571 11.8231V11.2634C6.28571 11.1537 6.31612 11.0659 6.37695 11C6.44792 10.9232 6.53409 10.8848 6.63548 10.8848H7.80644V5.6332C7.80644 5.51247 7.83686 5.41919 7.89769 5.35334C7.96865 5.27651 8.05483 5.2381 8.15621 5.2381H12.0189C13.1645 5.2381 14.0668 5.53991 14.7258 6.14354C15.3848 6.74717 15.7143 7.61969 15.7143 8.76109C15.7143 9.88055 15.3848 10.7366 14.7258 11.3293C14.0769 11.9109 13.1746 12.2018 12.0189 12.2018H9.32718V13.1401H12.2622C12.3636 13.1401 12.4447 13.1786 12.5055 13.2554C12.5765 13.3212 12.612 13.409 12.612 13.5188V13.8974C12.612 14.0072 12.5765 14.1005 12.5055 14.1773C12.4447 14.2431 12.3636 14.2761 12.2622 14.2761H9.32718V16.3833C9.32718 16.493 9.2917 16.5863 9.22073 16.6631C9.14976 16.729 9.06359 16.7619 8.9622 16.7619H8.15621ZM11.9428 10.8848C12.6829 10.8848 13.2405 10.7037 13.6157 10.3415C14.0009 9.97932 14.1935 9.45252 14.1935 8.76109C14.1935 8.06966 14.006 7.54286 13.6309 7.18068C13.2558 6.80753 12.6931 6.62096 11.9428 6.62096H9.31197V10.8848H11.9428Z" fill="#BFC0C4"/>
</svg>

<svg width="22" height="22" fill="none" xmlns="http://www.w3.org/2000/svg"><circle cx="11" cy="11" r="10.15" stroke="#BFC0C4" stroke-width="1.7"/><path d="M8.156 16.762a.366.366 0 01-.258-.099.437.437 0 01-.092-.28v-2.107h-1.17a.367.367 0 01-.26-.099.437.437 0 01-.09-.28v-.378c0-.11.03-.198.091-.264a.34.34 0 01.258-.115h1.171v-.938h-1.17a.367.367 0 01-.26-.099.437.437 0 01-.09-.28v-.56c0-.11.03-.197.091-.263a.339.339 0 01.258-.115h1.171V5.633c0-.12.03-.214.092-.28a.339.339 0 01.258-.115h3.863c1.146 0 2.048.302 2.707.906.659.603.988 1.476.988 2.617 0 1.12-.33 1.976-.988 2.568-.65.582-1.551.873-2.707.873H9.327v.938h2.935c.102 0 .183.039.243.115a.342.342 0 01.107.264v.378c0 .11-.036.204-.107.28a.315.315 0 01-.243.1H9.327v2.106c0 .11-.035.203-.106.28a.366.366 0 01-.259.099h-.806zm3.787-5.877c.74 0 1.298-.181 1.673-.543.385-.363.578-.89.578-1.58 0-.692-.188-1.22-.563-1.581-.375-.373-.938-.56-1.688-.56H9.312v4.264h2.63z" fill="#BFC0C4"/></svg>
